libs/ui/packages/crypto-icons/src/svg/ECA.svg

<svg width="24" height="24" viewBox="0 0 24 24" fill="none">
<path d="M11.9988 19.2089C12.1788 19.2097 12.3251 19.3589 12.3258 19.5419C12.3266 19.6293 12.2927 19.7135 12.2315 19.7759C12.1704 19.8383 12.087 19.8739 11.9996 19.8749C11.9562 19.8745 11.9134 19.8656 11.8735 19.8487C11.8336 19.8317 11.7975 19.8071 11.7671 19.7762C11.7367 19.7452 11.7128 19.7086 11.6965 19.6684C11.6803 19.6283 11.6722 19.5853 11.6726 19.5419C11.6722 19.4986 11.6803 19.4556 11.6965 19.4154C11.7128 19.3752 11.7367 19.3386 11.7671 19.3077C11.7975 19.2768 11.8336 19.2521 11.8735 19.2352C11.9134 19.2182 11.9562 19.2093 11.9996 19.2089H11.9988ZM5.41381 8.51843C5.33805 8.47311 5.28305 8.39992 5.26062 8.31454C5.23819 8.22915 5.2501 8.13838 5.29381 8.06168C5.3259 8.00462 5.37437 7.95852 5.43296 7.92932C5.49154 7.90012 5.55754 7.88917 5.62241 7.8979C5.68729 7.90662 5.74805 7.93462 5.79683 7.97826C5.84562 8.0219 5.88019 8.07917 5.89606 8.14268C5.91293 8.2064 5.91077 8.27367 5.88984 8.33618C5.86892 8.39869 5.83015 8.4537 5.77831 8.49443C5.72702 8.53462 5.66479 8.55841 5.59977 8.56269C5.53474 8.56697 5.46994 8.55155 5.41381 8.51843ZM5.41381 15.4889C5.45112 15.4673 5.49234 15.4533 5.5351 15.4478C5.57785 15.4422 5.62129 15.4452 5.66287 15.4566C5.70446 15.468 5.74337 15.4875 5.77735 15.514C5.81133 15.5406 5.8397 15.5736 5.86081 15.6112C5.90421 15.6876 5.91596 15.7779 5.89352 15.8629C5.87109 15.9479 5.81627 16.0207 5.74081 16.0657C5.70356 16.0875 5.66232 16.1017 5.61952 16.1073C5.57673 16.113 5.53323 16.11 5.49158 16.0986C5.44994 16.0872 5.41099 16.0676 5.37703 16.041C5.34307 16.0143 5.31478 15.9812 5.29381 15.9434C5.25041 15.867 5.23867 15.7767 5.2611 15.6917C5.28353 15.6067 5.33835 15.5339 5.41381 15.4889ZM18.5838 8.51843C18.5465 8.54004 18.5053 8.55403 18.4625 8.55958C18.4198 8.56513 18.3763 8.56213 18.3348 8.55076C18.2932 8.53939 18.2543 8.51987 18.2203 8.49333C18.1863 8.46679 18.1579 8.43377 18.1368 8.39618C18.104 8.33884 18.0886 8.27315 18.0926 8.20719C18.0966 8.14123 18.1198 8.07788 18.1593 8.02493C18.1983 7.97243 18.2522 7.9329 18.3141 7.91149C18.3759 7.89009 18.4427 7.8878 18.5058 7.90493C18.5693 7.92286 18.626 7.95906 18.669 8.00902C18.712 8.05897 18.7394 8.12048 18.7477 8.18588C18.756 8.25128 18.7449 8.31768 18.7158 8.37681C18.6866 8.43594 18.6407 8.48519 18.5838 8.51843ZM11.9996 4.79093C11.913 4.78877 11.8307 4.75263 11.7705 4.69033C11.7103 4.62803 11.677 4.54456 11.6778 4.45793C11.6778 4.32293 11.7588 4.20068 11.8811 4.14968C11.9413 4.12462 12.0077 4.11837 12.0716 4.13176C12.1354 4.14514 12.1937 4.17753 12.2388 4.22468C12.2844 4.27222 12.3151 4.33206 12.3271 4.39683C12.3391 4.4616 12.3319 4.52846 12.3063 4.58918C12.2812 4.64964 12.2386 4.7012 12.1839 4.73717C12.1292 4.77313 12.065 4.79186 11.9996 4.79093ZM17.8496 15.4364C17.77 15.5767 17.7431 15.7408 17.7736 15.8991C17.8041 16.0575 17.8901 16.1997 18.0161 16.3004L12.6528 19.4504C12.6321 19.2917 12.5547 19.1458 12.4347 19.0397C12.3147 18.9337 12.1604 18.8747 12.0003 18.8737C11.8402 18.8747 11.6859 18.9337 11.5659 19.0397C11.446 19.1458 11.3685 19.2917 11.3478 19.4504L5.98306 16.3004C6.1086 16.1996 6.19414 16.0573 6.22438 15.8992C6.25461 15.741 6.22756 15.5772 6.14806 15.4372C6.07045 15.2978 5.94456 15.1917 5.79411 15.1388C5.64366 15.0859 5.47905 15.0899 5.33131 15.1499V8.84993C5.47887 8.90985 5.64324 8.91381 5.79351 8.86104C5.94378 8.80828 6.0696 8.70245 6.14731 8.56343C6.22685 8.42371 6.25415 8.26027 6.22434 8.10229C6.19453 7.9443 6.10955 7.80205 5.98456 7.70093L11.3478 4.55093C11.3685 4.7097 11.446 4.8556 11.5659 4.96164C11.6859 5.06767 11.8402 5.12666 12.0003 5.12768C12.1605 5.12664 12.3149 5.06754 12.4349 4.96136C12.5549 4.85517 12.6323 4.70908 12.6528 4.55018L18.0176 7.70018C17.8922 7.801 17.8068 7.9431 17.7766 8.10111C17.7463 8.25911 17.7733 8.42271 17.8526 8.56268C17.9302 8.702 18.0561 8.80813 18.2065 8.86104C18.357 8.91395 18.5216 8.91 18.6693 8.84993V15.1462C18.5209 15.0861 18.3556 15.0824 18.2047 15.1359C18.0538 15.1893 17.9277 15.2963 17.8503 15.4364H17.8496ZM13.2656 14.4712C12.6829 14.8137 11.9935 14.9272 11.3318 14.7893C10.6701 14.6515 10.0833 14.2724 9.68581 13.7257L13.2243 11.6527L14.4303 10.9447L15.0018 10.6072L15.0348 10.5914L17.4648 9.16193C17.6148 9.07418 17.6673 8.87918 17.5818 8.72618C17.5622 8.68946 17.5353 8.65714 17.5027 8.63121C17.4701 8.60528 17.4326 8.58629 17.3924 8.5754C17.3522 8.56451 17.3103 8.56196 17.269 8.5679C17.2278 8.57383 17.1883 8.58814 17.1528 8.60993L15.3663 9.66368C15.0266 9.15556 14.5804 8.72738 14.0588 8.4088C13.5372 8.09023 12.9525 7.88887 12.3453 7.81868V5.77193C12.3457 5.72898 12.3376 5.68638 12.3216 5.64656C12.3055 5.60673 12.2817 5.57046 12.2517 5.53982C12.2216 5.50918 12.1857 5.48476 12.1462 5.46796C12.1067 5.45117 12.0643 5.44232 12.0213 5.44193C11.9783 5.44222 11.9358 5.451 11.8962 5.46775C11.8566 5.4845 11.8206 5.5089 11.7905 5.53956C11.7603 5.57021 11.7365 5.60651 11.7204 5.64639C11.7043 5.68626 11.6962 5.72892 11.6966 5.77193V7.79993C11.0301 7.83258 10.3815 8.02664 9.80656 8.36543C9.2877 8.66954 8.83932 9.08035 8.49106 9.57068L6.85306 8.60993C6.81738 8.58903 6.77788 8.57547 6.73688 8.57005C6.69588 8.56462 6.65422 8.56744 6.61433 8.57834C6.57443 8.58924 6.53712 8.608 6.50458 8.63351C6.47203 8.65903 6.44492 8.69079 6.42481 8.72693C6.3835 8.80009 6.37238 8.8865 6.39381 8.96774C6.41524 9.04898 6.46754 9.11866 6.53956 9.16193L8.16481 10.1174C7.81716 10.8144 7.66427 11.5923 7.72231 12.3689L7.87306 13.2269C7.94056 13.4594 8.02531 13.6859 8.12881 13.9042L6.53956 14.8379C6.46706 14.8813 6.4145 14.9515 6.39318 15.0332C6.37186 15.115 6.38349 15.2019 6.42556 15.2752C6.44588 15.3113 6.47318 15.343 6.50589 15.3685C6.5386 15.3939 6.57605 15.4126 6.61605 15.4234C6.65606 15.4343 6.69783 15.437 6.73891 15.4315C6.77999 15.426 6.81956 15.4124 6.85531 15.3914L8.45056 14.4569C8.81561 14.99 9.2976 15.4327 9.85976 15.7511C10.4219 16.0696 11.0494 16.2554 11.6943 16.2944V18.2279C11.6943 18.4102 11.8398 18.5579 12.0191 18.5579C12.062 18.5575 12.1045 18.5487 12.144 18.5319C12.1835 18.5151 12.2193 18.4907 12.2494 18.46C12.2795 18.4294 12.3033 18.3931 12.3193 18.3533C12.3354 18.3135 12.3435 18.2709 12.3431 18.2279V16.2779C12.9266 16.2179 13.4901 16.0311 13.9938 15.7304C14.5621 15.3927 15.0417 14.9242 15.3926 14.3639L17.1453 15.3899C17.2953 15.4754 17.4843 15.4222 17.5706 15.2707C17.6122 15.198 17.6239 15.1119 17.6032 15.0307C17.5825 14.9495 17.531 14.8796 17.4596 14.8357L15.6956 13.8007C15.7001 13.7909 15.7106 13.7797 15.7106 13.7677C16.2461 12.5347 14.8128 12.0052 14.4941 12.9547C14.2811 13.5922 13.8444 14.1309 13.2648 14.4712H13.2656ZM18.5846 15.4889C18.6599 15.5342 18.7146 15.6071 18.737 15.6922C18.7595 15.7772 18.7478 15.8676 18.7046 15.9442C18.6835 15.9819 18.6552 16.015 18.6212 16.0415C18.5872 16.0681 18.5483 16.0876 18.5066 16.0989C18.465 16.1103 18.4215 16.1132 18.3787 16.1074C18.336 16.1017 18.2948 16.0875 18.2576 16.0657C18.1821 16.0207 18.1273 15.9479 18.1049 15.8629C18.0824 15.7779 18.0942 15.6876 18.1376 15.6112C18.1585 15.5734 18.1868 15.5403 18.2208 15.5136C18.2547 15.487 18.2937 15.4674 18.3353 15.456C18.377 15.4446 18.4205 15.4416 18.4633 15.4473C18.5061 15.4529 18.5473 15.4671 18.5846 15.4889ZM9.21256 12.4402C9.18031 11.1899 9.32881 10.3177 10.5131 9.62168C10.9913 9.34022 11.5442 9.21205 12.0975 9.25442C12.6508 9.2968 13.1778 9.50768 13.6076 9.85868L9.21256 12.4402Z" fill="#AA15DD"/>
</svg>

<svg width="24" height="24" viewBox="0 0 24 24" fill="none"><path fill="#aa15dd" d="M11.999 19.209c.18 0 .326.15.327.333a.33.33 0 0 1-.326.333.33.33 0 0 1-.303-.46.33.33 0 0 1 .303-.206zM5.414 8.519a.338.338 0 0 1 .019-.59.327.327 0 0 1 .463.214.34.34 0 0 1-.118.351.32.32 0 0 1-.364.024m0 6.97a.325.325 0 0 1 .447.122.336.336 0 0 1-.12.455.323.323 0 0 1-.447-.123.336.336 0 0 1 .12-.454m13.17-6.97a.325.325 0 0 1-.447-.123.34.34 0 0 1 .022-.371.325.325 0 0 1 .51-.016.336.336 0 0 1-.085.51M12 4.79a.33.33 0 0 1-.322-.333c0-.135.08-.257.203-.308a.32.32 0 0 1 .358.075.338.338 0 0 1-.055.512.33.33 0 0 1-.184.054m5.85 10.645a.68.68 0 0 0 .166.864l-5.363 3.15a.66.66 0 0 0-.653-.576.66.66 0 0 0-.652.576L5.983 16.3a.678.678 0 0 0-.189-1.161.65.65 0 0 0-.463.01v-6.3a.653.653 0 0 0 .816-.286.68.68 0 0 0-.162-.862l5.363-3.15a.66.66 0 0 0 .652.577.66.66 0 0 0 .653-.578l5.365 3.15a.678.678 0 0 0 .188 1.161.65.65 0 0 0 .463-.011v6.296a.655.655 0 0 0-.819.29m-4.584-.965a2.72 2.72 0 0 1-3.58-.745l3.538-2.073 1.206-.708.572-.338.033-.016 2.43-1.43a.323.323 0 0 0-.073-.586.3.3 0 0 0-.24.035l-1.786 1.054a4.22 4.22 0 0 0-3.02-1.845V5.772a.33.33 0 0 0-.325-.33.327.327 0 0 0-.324.33V7.8a4.1 4.1 0 0 0-1.89.565A4.25 4.25 0 0 0 8.49 9.571L6.853 8.61a.31.31 0 0 0-.428.117.32.32 0 0 0 .115.435l1.625.955a4.3 4.3 0 0 0-.443 2.252l.151.858q.101.349.256.677l-1.59.934a.323.323 0 0 0 .077.585.3.3 0 0 0 .24-.032l1.595-.934a4.24 4.24 0 0 0 3.243 1.837v1.934c0 .182.146.33.325.33a.327.327 0 0 0 .324-.33v-1.95a4 4 0 0 0 1.65-.548 4.16 4.16 0 0 0 1.4-1.366l1.752 1.026c.15.085.34.032.426-.12a.323.323 0 0 0-.111-.434L15.696 13.8c.004-.01.015-.021.015-.033.535-1.233-.898-1.763-1.217-.813a2.78 2.78 0 0 1-1.23 1.516zm5.319 1.018a.337.337 0 0 1 .036.552.32.32 0 0 1-.363.025.336.336 0 0 1 .077-.61.32.32 0 0 1 .25.033M9.213 12.44c-.033-1.25.116-2.122 1.3-2.818a2.715 2.715 0 0 1 3.095.237z"/></svg>
